X: 305848
M: 6/8
L: 1/8
K: D
.D(AF) .A,(EC) | .D(AF) .A,(EC) | DFA def | g>Be d>cB |\
.D(AF) .A,(EC) | .D(AF) .A,(EC) | DFA def | g>Be d3 H|]
f>ff {=g}a3 | d>dd {e}f3 | A>AA {A}B2A | FAd eA{c}d |\
f>ff {^g}a3 | d>dd {e}f3 | A>AA B2A | A<fe "^D.C."d2 |]
{^g}a2z {^e}f2z | {^c}d2z {^A}B2z | FA/A/A Ade | fgf AAd |\
{^g}a2z {^e}f2z | {^c}d2z {^A}B2z | FA/A/A Ade | fg[ec] "^D.C."d3 |]


